!!!OTL: DENK ICH ALLEWEIL
!!!ARE: Europa, Mitteleuropa, Deutschland, Franken
!!!SCT: E0518
!!!YEM: Copyright 1995, estate of Helmut Schaffrath.
**kern
*ICvox
*Ivox
*M3/8
*k[f#]
*G:
{16g
16a
=1
16b
16b
8b
16g
16a
=2
16b
16b
8b}
{8dd
=3
8.dd
16cc
8b
=4
4a}
{16a
16cc
=5
8cc
8cc
16a
16cc
=6
8b
8b}
{16g
16b
=7
8.a
16g
8a
=8
8b
8dd}
{16a
16cc
=9
8cc
8cc
16a
16cc
=10
8b
8b}
{16g
16b
=11
8.a
16g
8a
=12
4g}
==
!!!AGN: Liebes - Lied
!!!ONB: ESAC (Essen Associative Code) Database: ERK1
!!!AMT: simple triple
!!!AIN: vox
!!!EED: Helmut Schaffrath
!!!EEV: 1.0
*-
